components/SocialProfiles/images/twitter.svg

<?xml version="1.0" encoding="UTF-8" standalone="no"?>
<svg width="30px" height="25px" viewBox="0 0 30 25" version="1.1" xmlns="http://www.w3.org/2000/svg" xmlns:xlink="http://www.w3.org/1999/xlink">
    <!-- Generator: Sketch 3.7 (28169) - http://www.bohemiancoding.com/sketch -->
    <title>Shape</title>
    <desc>Created with Sketch.</desc>
    <defs>
        <circle id="path-1" cx="133" cy="40" r="35"></circle>
        <mask id="mask-2" maskContentUnits="userSpaceOnUse" maskUnits="objectBoundingBox" x="0" y="0" width="70" height="70" fill="white">
            <use xlink:href="#path-1"></use>
        </mask>
    </defs>
    <g id="Mobile-design" stroke="none" stroke-width="1" fill="none" fill-rule="evenodd">
        <g id="Help-page-mobile" transform="translate(-143.000000, -3687.000000)">
            <g id="Group-17" transform="translate(24.000000, 3659.000000)">
                <use id="Oval-872-Copy-2" stroke="#B8C0C9" mask="url(#mask-2)" stroke-width="4" opacity="0.5" xlink:href="#path-1"></use>
                <path d="M145.946196,35.0391921 C145.946196,43.3825575 139.755435,53 128.435326,53 C124.957609,53 121.724457,51.9549893 119,50.1625869 C119.482609,50.2211075 119.971739,50.2512039 120.467391,50.2512039 C123.353261,50.2512039 126.005978,49.2413055 128.11087,47.5508962 C125.419022,47.4990637 123.144565,45.676565 122.361957,43.1685393 C122.736957,43.2404361 123.12337,43.2788925 123.519565,43.2788925 C124.082065,43.2788925 124.62663,43.2036517 125.141848,43.0598582 C122.326087,42.4779963 120.204891,39.9281701 120.204891,36.8683788 L120.204891,36.789794 C121.034783,37.2629749 121.985326,37.5472178 122.992935,37.5806581 C121.341304,36.4470305 120.253804,34.5175227 120.253804,32.3255083 C120.253804,31.1701445 120.557065,30.0850054 121.088587,29.1520198 C124.122826,32.9725789 128.660326,35.4839486 133.775,35.7481273 C133.670652,35.2849786 133.616848,34.8051097 133.616848,34.3085206 C133.616848,30.8240369 136.370652,28 139.770109,28 C141.540761,28 143.140217,28.7641118 144.263587,29.9913724 C145.66413,29.7071295 146.981522,29.1821161 148.171739,28.4598047 C147.711957,29.9328518 146.735326,31.1701445 145.465217,31.9509765 C146.71087,31.7971509 147.894565,31.4610754 149,30.9577983 C148.175,32.2251873 147.131522,33.3354066 145.928261,34.2232477 C145.941304,34.4941145 145.946196,34.7683253 145.946196,35.0391921 Z" id="Shape" fill="#1DA1F2"></path>
            </g>
        </g>
    </g>
</svg>

<svg width="30" height="25" viewBox="0 0 30 25" xmlns="http://www.w3.org/2000/svg" xmlns:xlink="http://www.w3.org/1999/xlink"><title>Shape</title><desc>Created with Sketch.</desc><defs><circle id="a" cx="133" cy="40" r="35"/><mask id="b" x="0" y="0" width="70" height="70"><use xlink:href="#a"/></mask></defs><g transform="translate(-119 -28)" fill="none"><use stroke="#B8C0C9" mask="url(#b)" stroke-width="4" opacity=".5" xlink:href="#a"/><path d="M145.928 34.223c.013.271.018.545.018.816 0 8.343-6.191 17.961-17.511 17.961-3.478 0-6.711-1.045-9.435-2.837.483.059.972.089 1.467.089 2.886 0 5.539-1.01 7.643-2.7-2.692-.052-4.966-1.874-5.749-4.382.375.072.761.11 1.158.11.563 0 1.107-.075 1.622-.219-2.816-.582-4.937-3.132-4.937-6.191v-.079c.83.473 1.78.757 2.788.791-1.652-1.134-2.739-3.063-2.739-5.255 0-1.155.303-2.241.835-3.173 3.034 3.821 7.572 6.332 12.686 6.596-.104-.463-.158-.943-.158-1.44 0-3.484 2.754-6.309 6.153-6.309 1.771 0 3.37.764 4.493 1.991 1.401-.284 2.718-.809 3.908-1.532-.46 1.473-1.436 2.71-2.707 3.491 1.246-.154 2.429-.49 3.535-.993-.825 1.267-1.868 2.378-3.072 3.265z" fill="#1DA1F2"/></g></svg>
